X: 41349
T: Turnpike Gate, The
R: reel
M: 4/4
K: Gmajor
GEDE G3B|AD F/E/D AD F/E/D|GEDE G2 B/c/d|egdB AcBA|
GEDE GABG|AD F/E/D AD F/E/D|GEDE GABd|eBdB GABd||
g3b a3b|gabg agef|gfgb a3b|gabg agef|
g2 db agab|gabg afge|Beef ed B/c/d|gedB A/B/c BA||

